!!!OTL: SCHLAF KINDCHEN BALDE
!!!ARE: Europa, Mitteleuropa, Deutschland, Sueddeutschland
!!!SCT: E1809
!!!YEM: Copyright 1995, estate of Helmut Schaffrath.
**kern
*ICvox
*Ivox
*M4/4
*k[b-]
*F:
=1
{2cc
4a
4g
=2
2f
4c
4r}
=3
{4cc
4cc
4a
4g
=4
2f
4c}
{4c
=5
4f
4f
4g
4g
=6
4cc
4a
4f}
{4c
=7
4f
4f
4g
4g
=8
4cc
4a
4f}
{4cc
=9
4a
4f
4g
4c
=10
2f
4f
4r}
=11
{4a
4a
8g
8f
4g
=12
2f
4c
4r}
=13
{4f
4f
4g
4g
=14
4b-
4a
4g}
{4g
=15
4a
4f
4g
4c
=16
4f
4f
4f
4r}
==
!!!AGN: Kinder -, Wiegen -, Schlaf - Lied
!!!ONB: ESAC (Essen Associative Code) Database: ERK3
!!!AMT: simple quadruple
!!!AIN: vox
!!!EED: Helmut Schaffrath
!!!EEV: 1.0
*-
